!!!ONB: MCCC : ILB0164_04 : Extracted Monophonic Melody
!!!COM: Beethoven, Ludwig van
!!!OPR: Piano Sonata No.3
!!!OMV: 4
!!!SCT: Op.2 No.3
!!!ODT: 1794///
**kern
*thru
*Ipiano
*staff1
*clefG2
*k[]
*C:
*M6/8
*MM180
8g
=1
8cc
8b
8cc
8dd
8ee
8ff
=2
8gg
8aa
8bb
8ccc
8ddd
8eee
=3
4fff
8eee
4fff
8eee
=4
4ddd
8r
4r
8d
=5
8g
8f#
8g
8a
8b
8cc
=6
8dd
8ee
8ff
8gg
8aa
8bb
=7
4ccc
8ddd
4ccc
8ddd
=8
4ccc
8r
16aa
16gg
16ff
16ee
16dd
16cc
=9
16b
16cc
16b
16a
16b
16g
16cc
16dd
16cc
16b
16cc
16g
=10
16dd
16ee
16dd
16cc#
16dd
16g
16gg
16ff
16ee
16dd
16cc
16b
=11
16cc
16dd
16cc
16b
16cc
16g
16dd
16ee
16dd
16cc#
16dd
16g
=12
16ee
16ff
16ee
16dd#
16ee
16cc
16aa
16gg
16ff
16ee
16dd
16cc
=13
16ff#
16gg
16ff#
16ee
16ff#
16dd
16gg
16aa
16gg
16ff#
16gg
16dd
=14
16aa
16bb
16aa
16gg#
16aa
16dd
16ddd
16ccc
16bb
16aa
16gg
16ff#
=15
16gg
16aa
16gg
16ff#
16gg
16dd
16ddd
16eee
16ddd
16ccc#
16ddd
16ff#
=16
16gg
16aa
16gg
16ff#
16gg
16dd
16ddd
16eee
16ddd
16ccc#
16ddd
16ff#
=17
16gg
16aa
16gg
16ff#
16gg
16aa
16bb
16ccc
16bb
16aa#
16bb
16ccc
=18
16ddd
16eee
16ddd
16ccc#
16ddd
16eee
16fff
16ddd
16bb
16gg
16ff
16dd
=19
8cc
8b
8cc
8dd
8ee
8ff
=20
8gg
8aa
8bb
8ccc
8ddd
8eee
=21
4fff
8eee
4fff
8eee
=22
4ddd#
8r
4r
8bb
=23
4eee
8ddd#
4eee
8ddd
=24
4ccc#
8r
4r
8aa
=25
4ddd
8ccc
4bb
8aa
=26
4gg
8ff#
4ee
8dd
=27
4cc
8b
4a
8g#
=28
4a
8g#
4a
8g
=29
4f#
8r
4r
8r
=30
[4.cc
8cc]
8a
8f#
=31
4dd
16b
16g
4dd
16b
16g
=32
[4.cc
8cc]
8a
8f#
=33
4dd
16b
16g
4dd
16b
16g
=34
[4.cc
8cc]
8a
8f#
=35
8dd
8b
8f#
8g
8b
8d#
=36
8e
8g
8B
8c
8e
8G#
=37
8A
8c
8B
8A
8B
8c
=38
8d
8c#
8d
4.r
=39
16r
16G
16B
16d
16f#
16g
16b
16dd
16ff#
16gg
16aa
16bb
=40
[4.ccc
8ccc]
8aa
8ff#
=41
4ddd
16bb
16gg
4ddd
16bb
16gg
=42
[4.ccc
8ccc]
8aa
8ff#
=43
4ddd
16bb-
16gg
4ddd
16bb-
16gg
=44
[4.ccc
8ccc]
8aa
8ff#
=45
8ddd
8bb-
8ff#
8gg
8bb-
8dd
=46
8ee-
8gg
8b
8cc
8ee-
8g
=47
8a-
8ccc
8ee
8ff
8aa-
8cc#
=48
8dd
8ff
8a
8b-
8dd
8f#
=49
8g
8bb-
8dd
8ee-
8gg
8b
=50
8cc
8ee-
8g
8a-
8cc
8e
=51
8f
8a-
8c#
8d
8f
8A#
=52
2.r
=53
2.r
=54
2.r
=55
4.r
8G
8A
8B
=56
8c
8G
8d
8e-
8G
8f#
=57
4.g
4.f
=58
4.e-
4.c
=59
8r
8B
8d
8g
8a
8b
=60
8cc
8g
8dd
8ee-
8g
8ff#
=61
[4.gg
4.gg]
=62
4.ee-
4.cc
=63
8b
8f#
8g
8a
8b
8cc
=64
8dd
8ee
8ff#
8gg
8aa
8bb
=65
8b
8a
8b
8cc
8dd
8ee
=66
8ff#
8gg
8aa
8bb
8ccc
8ddd
=67
8r
8r
8fff
8eee
8ddd
8ccc
=68
8bb
8aa
8gg
8ff
8ee
8dd
=69
8cc
8b
8cc
8dd
8ee
8ff
=70
8gg
8aa
8bb
8ccc
8ddd
8eee
=71
4fff
8eee
4fff
8eee
=72
4ddd
8r
4r
8d
=73
8g
8f#
8g
8a
8b
8cc
=74
8dd
8ee
8ff
8gg
8aa
8bb
=75
4ccc
8ddd
4ccc
8ddd
=76
4ccc
8r
4r
8r
=77
[2.gg
=78
4.gg_
8gg]
8ff
8ee
=79
4dd
8ee
4dd
8ee
=80
4ff
8r
4r
8r
=81
[2.aa
=82
4.aa_
8aa]
8gg
8ff
=83
4ee
8ff
4ee
8ff#
=84
4gg
8r
4r
8r
=85
[2.bb
=86
4.bb_
8bb]
8aa
8gg
=87
8A
8ff#
8gg
8F#
8aa
8bb
=88
8D#
8ccc
8bb
8aa
8gg
8ff#
=89
8d
8bb
8ccc
8B
8ddd
8eee
=90
8G#
8fff
8eee
8ddd
8ccc
8bb
=91
8G
8ee
8ff
8F
8gg
8aa
=92
8C#
8bb-
8aa
8gg
8ff
8ee
=93
8D
8aa
8gg
8ff
8ee
8dd
=94
8r
8fff
8eee
8ddd
8ccc
8bb
=95
8r
8eee
8ddd
8ccc
8bb
8aa
=96
8r
8b
8ddd
8r
8g#
8bb
=97
8r
8a
8aa
8r
8f
8ff
=98
8r
8d
8dd
8r
8B
8b
=99
8r
8G#
8g#
8r
8A
8a
=100
2.r
=101
2.r
=102
2.r
=103
4.f
4.a
=104
4.cc
4.ff
=105
4.ee
4.dd
=106
4.cc
4.b-
=107
4.a
4.g
=108
4.f
4.g
=109
4.e
4.d
=110
4c
8r
4r
8r
=111
8r
8aa
8ccc
8r
8ff
8aa
=112
8r
8gg#
8aa
8r
8cc
8aa
=113
8r
8aa
8gg
8r
8ff
8bb
=114
8r
8ee
8ccc
8r
8ee
8ddd
=115
8r
8ddd
8ccc
8r
8bb-
8eee
=116
8r
8aa
8fff
8r
8b-
8ddd
=117
8r
8a
8ccc
8r
8b-
8ee
=118
4ff
8r
4r
8r
=119
4r
8r
4b-
8a
=120
8g
8f#
8g
8a
8g
8a
=121
4b-
8r
4dd
8cc
=122
8b-
8cc
8b-
8a
8b-
8a
=123
4g
8r
4b-
8a
=124
8g
8f#
8g
8a
8g
8a
=125
4b-
8r
4dd
8cc
=126
8b-
8dd
8cc
8b-
8a
8g
=127
4.f
4.a
=128
4.cc
4.ff
=129
4.ee
4.dd
=130
4.cc
4.b-
=131
4.a
4.g
=132
4.f
4.g
=133
4.c
4.e
=134
4f
8r
4r
8r
=135
4r
8r
4b-
8a
=136
8g
8f#
8g
8a
8g
8a
=137
4b-
8r
4dd
8cc
=138
8b-
8cc
8b-
8a
8b-
8a
=139
4g
8r
4b-
8a
=140
8g
8f#
8g
8a
8g
8a
=141
4b-
8r
4dd
8cc
=142
8b-
8dd
8cc
8b-
8a
8g
=143
4.f
4.a
=144
4.cc
4.ff
=145
4.ee
4.dd
=146
4.cc
4.b-
=147
8a-
8aa-
8ccc
8r
8ff
8aa-
=148
8r
8cc
8ff
8r
8a-
8aa-
=149
8r
8aa-
8gg
8r
8g
8ff
=150
8r
8ff
8ee-
8r
8dd-
8ddd-
=151
8r
8ccc
8eee-
8r
8aa-
8ccc
=152
4.e-
4.a-
=153
4.g
4.f
=154
4.e-
4.d
=155
4.ee-
4.gg
=156
4.ccc
4.ccc
=157
4.bb
4.aa
=158
4.gg
4.bb-
=159
4.aa-
4.gg
=160
4.ff
4.gg
=161
4.ee-
4.dd
=162
4.cc
4.dd
=163
4.b
4.a
=164
4.g
4.e-
=165
4.d
4.c
=166
2.r
=167
4r
8r
4d
8c
=168
8B
8A
8B
8c
8B
8c
=169
4d
8r
4f
8e
=170
8d
8c
8d
8e
8d
8e
=171
4f
8r
4a
8g
=172
8f
8g
8f
8e
8f
8e
=173
4d
8r
4a
8g
=174
8f
8g
8f
8e
8f
8e
=175
8d
8c#
8d
8e
8f
8g
=176
8a
8b
8cc
8dd
8ee-
8ee
=177
8ff
8cc#
8dd
8ee
8ff
8gg
=178
8aa
8bb
8ccc
8ddd
8eee-
8eee
=179
4fff
8r
4r
8r
=180
2.r
=181
8cc
8b
8cc
8dd
8ee
8ff
=182
8gg
8aa
8bb
8ccc
8ddd
8eee
=183
4fff
8eee
4fff
8eee
=184
4ddd
8r
4r
8d
=185
8g
8f#
8g
8a
8b
8cc
=186
8dd
8ee
8ff
8gg
8aa
8bb
=187
4ccc
8ddd
4ccc
8ddd
=188
4ccc
8r
4r
8r
=189
[2.gg
=190
4.gg_
8gg]
8ff
8ee
=191
4dd
8ee
4dd
8ee
=192
4dd
8r
4r
8g
=193
[2.ff
=194
4.ff_
8ff]
8ee
8dd
=195
4cc
8dd
4cc
8dd
=196
4cc
8r
16aa
16gg
16ff
16ee
16dd
16cc
=197
16b
16cc
16b
16a
16b
16g
16cc
16dd
16cc
16b
16cc
16g
=198
16dd
16ee
16dd
16cc#
16dd
16g
16gg
16ff
16ee
16dd
16cc
16b
=199
16cc
16dd
16cc
16b
16cc
16g
16dd
16ee
16dd
16cc#
16dd
16g
=200
16ee
16ff
16ee
16dd#
16ee
16cc
16aa
16gg
16ff
16ee
16dd
16cc
=201
16ff#
16gg
16ff#
16ee
16ff#
16dd
16gg
16aa
16gg
16ff#
16gg
16dd
=202
16aa
16bb
16aa
16gg#
16aa
16dd
16ddd
16ccc
16bb
16aa
16gg
16ff#
=203
16gg
16aa
16gg
16ff#
16gg
16dd
16ddd
16eee
16ddd
16ccc#
16ddd
16ff#
=204
16gg
16aa
16gg
16ff#
16gg
16dd
16ddd
16eee
16ddd
16ccc#
16ddd
16ff#
=205
16gg
16aa
16gg
16ff#
16gg
16aa
16bb
16ccc
16bb
16aa#
16bb
16ccc
=206
16ddd
16eee
16ddd
16ccc#
16ddd
16eee
16fff
16ddd
16bb
16gg
16ff
16dd
=207
8cc
8b
8cc
8dd
8ee
8ff
=208
8gg
8aa
8bb
8ccc
8ddd
8eee
=209
4fff
8eee
4fff
8eee
=210
4ddd
8r
4r
8r
=211
4eee
8ddd#
4eee
8ddd
=212
4ccc
8r
4r
8ccc
=213
4fff
8eee
4ddd
8ccc
=214
4bb
8aa
4gg
8ff
=215
4ee
8dd
4cc
8b
=216
4a
8g#
4a
8f#
=217
4g
8r
4r
8r
=218
[4.ff
8ff]
8dd
8b
=219
4gg
16ee
16cc
4gg
16ee
16cc
=220
[4.ff
8ff]
8dd
8b
=221
4gg
16ee
16cc
4gg
16ee
16cc
=222
[4.ff
8ff]
8dd
8b
=223
8gg
8ee
8b
8cc
8ee
8g#
=224
8a
8cc
8e
8f
8a
8c#
=225
8d
8f
8e
8d
8e
8f
=226
8g
8f#
8g
8G
8A
8B
=227
8c
8e
8g
8cc
8dd
8ee
=228
[4.ff
8ff]
8dd
8b
=229
4gg
16ee-
16cc
4gg
16ee-
16cc
=230
[4.ff
8ff]
8dd
8b
=231
4gg
16ee-
16cc
4gg
16ee-
16cc
=232
[4.aa-
8aa-]
8ff
8dd
=233
4bb-
16gg
16ee-
4bb-
16gg
16ee-
=234
[4.aa-
8aa-]
8ff
8dd
=235
8bb-
8gg
8dd
8ee-
8gg
8b
=236
8cc
8ee-
8g
8a-
8cc
8e
=237
8f
8ccc
8ee
8ff
8aa-
8cc#
=238
8dd
8ff
8a
8b-
8dd
8f#
=239
8g
8ddd
8ff#
8gg
8bb-
8dd
=240
8ee-
8gg
8b
8cc
8ee-
8g
=241
8a-
8cc
8e
8f
8a-
8c#
=242
8d
8f
8A#
8B
8d
8F#
=243
2.r
=244
2.r
=245
4.r
8G
8A
8B
=246
4.r
8e-
8G
8f#
=247
4.g
4.f
=248
4.e-
4.c
=249
8r
8B
8d
8g
8a
8b
=250
8cc
8g
8dd
8ee-
8g
8ff#
=251
[4.gg
4.gg]
=252
4.ee-
4.cc
=253
8b
8F#
8G
8A
8B
8c
=254
8d
8e
8f#
8g
8a
8b
=255
8B
8A
8B
8c
8d
8e
=256
8f#
8g
8a
8b
8cc
8dd
=257
8g
8f#
8g
8a
8b
8cc
=258
8dd
8ee
8ff
8gg
8aa
8bb
=259
[2.ccc
=260
2.ccc_
=261
2.ccc_
=262
2.ccc_
=263
2.ccc_
=264
2.ccc]
=265
4fff
8eee
4fff
8eee
=266
4ddd#
8r
4r
8r
=267
4eee
8ddd#
4eee
8ddd
=268
4ccc
8r
4r
8ccc
=269
8fff
8ddd#
8eee
8ccc#
8ddd
8bb
=270
8ccc
8aa#
8bb
8gg#
8aa
8ff#
=271
8gg
8ee
8ff
8dd#
8ee
8cc#
=272
8dd
8b
8cc
8a#
8b
8g#
=273
8a
8b
8cc
8b
8cc
8dd
=274
8cc
8dd
8ee
8dd
8ee
8ff
=275
8ee
8ff
8gg
8ff
8gg
8aa
=276
8gg
8aa
8bb
8aa
8bb
8ccc
=277
8bb
8ccc
8ddd
8ccc
8ddd
8eee
=278
8ccc
8ddd
8eee
8ccc
8ddd
8eee
=279
4ddd
8r
4r
8r
=280
4eee-
8r
4r
8r
=281
4eee
24g
24a
24b
8cc
8dd
8ee
=282
8ff
8gg
8aa
8bb
8ccc
8ddd
=283
8eee
8fff
8ddd
8eee
8fff
8ddd
=284
8eee
8fff
8ddd
8eee
8fff
8ddd
=285
[2.ddd
=286
2.ddd_
=287
2.ddd_
=288
2.ddd_
=289
2.ddd_
=290
2.ddd_
=291
2.ddd_
=292
2.ddd_
=293
2.ddd_
=294
2.ddd]
=295
2.ddd#[
=296
2.ddd#]
=297
2.r
=298
[2.eee
=299
4.eee_
8eee]
8ddd
8ccc#
=300
4bb
8ccc#
4bb
8ccc#
=301
4bb
8r
4r
8ee
=302
[2.eee
=303
4.eee_
8eee]
8ddd
8ccc
=304
4bb
8ccc
4bb
8ccc
=305
4bb
8r
4r
8gg
=306
[2.fff
=307
2.fff]
=308
8eee
8ddd
8ccc
8bb
8aa
8gg
=309
8ff
8ee
8dd
8cc
8b
8a
=310
4g
8r
4r
8r
=311
4r
8r
4r
8r
=312
4r
8r
4r
8r
==
*-
